X:286
T:Polska efter Brynte Olsson (Kull)
S:efter Brynte Kull
B:EÖ, nr 286
R:Polska
O:Boda, Skillingmarks sn, Värmland
Z:Nils L
L:1/8
M:3/4
%%tuplets 0 0 1
K:Dm
(3A=B^c  d>e f>a | (3geg (3fdf e2 | (ef) dd (3^c=Bc | d>_B A>G PFE/F/ |
D (B/c/ d>)e f>a | (3geg (3fdf e2 | ef dd ^c=B/c/ | [DFd]2 [DFd]3z ::
(3aga b>a g>f | (3ede (3fgf e2 | d>^c d>e fa | (3geg (3fdf e2 |
ag/a/ b>a g>f | ed/e/ fg/f/ e2 | d>^c d>e f>a | (3Pgef d3z :|

